public/assets/img/material-icons/work_off.svg

<svg height="24" viewBox="0 0 24 24" width="24" xmlns="http://www.w3.org/2000/svg"><path d="m23 21.74-1.46-1.46-14.33-14.33-3.96-3.96-1.26 1.26 2.7 2.7h-.64c-1.11 0-1.99.89-1.99 2l-.01 11c0 1.11.89 2 2 2h15.64l2.05 2.05zm-1-13.79c.05-1.11-.84-2-1.95-1.95h-4v-2.05c0-1.11-.89-2-2-1.95h-4c-1.11-.05-2 .84-2 1.95v.32l13.95 14zm-7.95-1.95h-4.05v-2.05h4.05z"/></svg>

<svg xmlns="http://www.w3.org/2000/svg" width="24" height="24" viewBox="0 0 24 24"><path d="m23 21.74-1.46-1.46L7.21 5.95 3.25 1.99 1.99 3.25l2.7 2.7h-.64c-1.11 0-1.99.89-1.99 2l-.01 11c0 1.11.89 2 2 2h15.64L21.74 23 23 21.74zM22 7.95c.05-1.11-.84-2-1.95-1.95h-4V3.95c0-1.11-.89-2-2-1.95h-4c-1.11-.05-2 .84-2 1.95v.32l13.95 14V7.95zM14.05 6H10V3.95h4.05V6z"/></svg>
